X: 1
T: McGoldrick's
C: Mick McGoldrick
M: 6/8
L: 1/8
K: Dmaj
~f3 efg|fdA GFE|FAd GBe|FAd cde|
~f3 efg|fdA GFE|FAd GBe|1 Adc d2 e:|Adc d2 c||
~B3 BAB |f2 a fec|ece fec|Ace fec|
~B3 BAB|fea fec|ece fec|1 BcA B2 A:|2 BcA Bde||
